X: 120
T:Spancil Hill
M:3/4
R:waltz
L:1/8
Z:added by Alf warnock alf0@rogers.com - www.alfwarnock.info/alfs
K:C
c2 B2 | "Dm"A4 D2 | A4 A2 | "C"G4 E2 | C4-CD | E2 G2 E2 | "Dm"D4 C2 | D6 - |D4 A2 |
A4 d2 | d4 e2 | d4 c2 | A4 B2 | "C"c4 d2 | c2 B2 A2 | G6 - |G4 A2 |
"Dm"A4 d2 | d4 e2 | d4 c2 | A4 B2 | "C"c4 d2 | c2 B2 A2 | G6 - |G4 cB |
"Dm"A4 D2 | A4 A2 | "C"G4 E2 | C4 D2 | E2 G2 E2 | "Dm"D4 C2 | D6 -|D6|]

